X: 62
T: O Expanse of the Heavens
N: Derived from pawnee62.krn
O: Oklahoma, U.S.A.
N: from Pawnee Music by Frances Densmore, 1926
Z: transcribed to **kern format by David Huron, August 2000
C: Skidi and Chaui Bands, 1919
L: 1/4
M: 2/4
Q: 1/4=88
K: F clef=bass
%%linebreak <none>
F/ [I:setbarnb 1]| 
F3/F/ | 
F3/D/ | 
C3/C/ | 
C3/C/ | 
=B,3/D/ | 
C3/D/ | 
C3/A,/ | 
F,3/F,/ | 
F,3/F,/ | 
F,3/C/ | 
A,3/C/ | 
F,3/A,/ | 
F,3/F,/ | 
F,3/A,/ | 
F,3/F,/ | 
F,2 | 
F,2- | 
F,2 | 
F,2 | 
F,3/ :|]  



